svgs/ather.svg

<svg width="192" height="192" viewBox="0 0 192 192" fill="none" xmlns="http://www.w3.org/2000/svg">
<path fill-rule="evenodd" clip-rule="evenodd" d="M61.3417 110.853C61.3417 103.867 67.09 98.1187 74.0755 98.1187C81.0611 98.1187 86.8093 103.867 86.8093 110.853C86.8093 117.838 81.0611 123.586 74.0755 123.586C67.09 123.586 61.3417 117.838 61.3417 110.853Z" stroke="black" stroke-width="10"/>
<path d="M111.402 117.377C113.812 122.108 119.688 124.017 124.418 121.606C129.148 119.196 131.058 113.32 128.647 108.59" stroke="black" stroke-width="10"/>
<path d="M89.665 74.7165C87.2547 69.986 89.1639 64.1102 93.8943 61.6999C98.6246 59.2897 104.501 61.1988 106.911 65.9293" stroke="black" stroke-width="10"/>
<path d="M89.665 74.7164L111.402 117.377M106.911 65.9293L128.647 108.59" stroke="black" stroke-width="10"/>
<path d="M21 96.0005C21 54.8746 54.8749 21 96 21C137.125 21 171 54.8746 171 96.0005C171 137.125 137.125 171 96 171C54.8748 171 21 137.125 21 96.0005Z" stroke="black" stroke-width="10"/>
</svg>

<svg xmlns="http://www.w3.org/2000/svg" width="192" height="192" fill="none" stroke="#000" stroke-width="10" viewBox="0 0 192 192"><path d="M61.342 110.853c0-6.986 5.748-12.734 12.734-12.734 6.985 0 12.733 5.748 12.733 12.734 0 6.985-5.748 12.733-12.733 12.733-6.986 0-12.734-5.748-12.734-12.733Zm50.06 6.524c2.41 4.731 8.286 6.64 13.016 4.229 4.73-2.41 6.64-8.286 4.229-13.016M89.665 74.716c-2.41-4.73-.501-10.606 4.23-13.016 4.73-2.41 10.606-.501 13.016 4.23m-17.246 8.786 21.737 42.661m-4.491-51.448 21.736 42.661"/><path d="M21 96c0-41.125 33.875-75 75-75s75 33.875 75 75-33.875 75-75 75-75-33.875-75-75Z"/></svg>
